resources/devices/camera_1.svg

<?xml version="1.0" encoding="UTF-8" standalone="no"?>
<!-- Uploaded to: SVG Repo, www.svgrepo.com, Generator: SVG Repo Mixer Tools -->

<svg
   fill="#000000"
   width="50"
   height="40"
   viewBox="0 0 50 40"
   id="template"
   version="1.1"
   sodipodi:docname="camera_1.svg"
   inkscape:version="1.3.2 (091e20e, 2023-11-25)"
   xmlns:inkscape="http://www.inkscape.org/namespaces/inkscape"
   xmlns:sodipodi="http://sodipodi.sourceforge.net/DTD/sodipodi-0.dtd"
   xmlns="http://www.w3.org/2000/svg"
   xmlns:svg="http://www.w3.org/2000/svg">
  <defs
     id="defs3" />
  <sodipodi:namedview
     id="namedview3"
     pagecolor="#ffffff"
     bordercolor="#000000"
     borderopacity="0.25"
     inkscape:showpageshadow="2"
     inkscape:pageopacity="0.0"
     inkscape:pagecheckerboard="0"
     inkscape:deskcolor="#d1d1d1"
     inkscape:current-layer="template" />
  <title
     id="title1" />
  <path
     id="path1"
     d="M 18.222656,4.0390625 A 4.1228925,4.1228925 0 0 0 14.53125,6.3027344 L 12.992187,9.3300781 H 8.2792969 A 3.2841019,3.2841019 0 0 0 5,12.615235 v 20.064452 a 3.2841019,3.2841019 0 0 0 3.2792969,3.28125 H 41.720703 a 3.2841019,3.2841019 0 0 0 3.279296,-3.28125 V 12.615235 A 3.2841019,3.2841019 0 0 0 41.720703,9.3300781 H 37.007812 L 35.474609,6.3027344 A 4.1228925,4.1228925 0 0 0 31.783203,4.0390625 Z m 0,0.9882813 H 31.777344 A 3.1391946,3.1391946 0 0 1 34.58789,6.75 l 1.312501,2.5820313 H 14.099609 L 15.412109,6.75 A 3.1391946,3.1391946 0 0 1 18.222656,5.0273438 Z M 8.2792969,10.318359 H 41.720703 a 2.296224,2.296224 0 0 1 2.292969,2.296876 v 20.064452 a 2.296224,2.296224 0 0 1 -2.292969,2.292969 H 8.2792969 A 2.296224,2.296224 0 0 1 5.9863281,32.679687 V 12.615235 A 2.296224,2.296224 0 0 1 8.2792969,10.318359 Z M 25,12.253907 A 9.849519,9.849519 0 1 0 34.847656,22.103515 9.8606658,9.8606658 0 0 0 25,12.253907 Z m 1.384765,1.095703 A 8.8616411,8.8616411 0 0 1 33.859376,22.103515 8.8686078,8.8686078 0 0 1 25,30.962891 8.8616411,8.8616411 0 1 1 26.384765,13.34961 Z M 25,15.183593 A 6.9193254,6.9193254 0 1 0 31.919922,22.103515 6.9276855,6.9276855 0 0 0 25,15.183593 Z m 0.927734,1.060548 A 5.9314475,5.9314475 0 0 1 30.931641,22.103515 5.9384142,5.9384142 0 0 1 25,28.033203 5.9314475,5.9314475 0 1 1 25.927734,16.244141 Z"
     style="stroke-width:0.5;stroke:#000000;stroke-opacity:1;stroke-dasharray:none"
     inkscape:label="camera" />
</svg>

<svg xmlns="http://www.w3.org/2000/svg" width="50" height="40">
    <path d="M18.223 4.04a4.12 4.12 0 0 0-3.692 2.263L12.992 9.33H8.28A3.284 3.284 0 0 0 5 12.615V32.68a3.284 3.284 0 0 0 3.28 3.28h33.44A3.284 3.284 0 0 0 45 32.68V12.615a3.284 3.284 0 0 0-3.28-3.285h-4.712l-1.533-3.027a4.12 4.12 0 0 0-3.692-2.264Zm0 .987h13.554a3.14 3.14 0 0 1 2.81 1.723L35.9 9.332H14.1l1.312-2.582a3.14 3.14 0 0 1 2.81-1.723Zm-9.944 5.291h33.442a2.296 2.296 0 0 1 2.293 2.297V32.68a2.296 2.296 0 0 1-2.293 2.293H8.279a2.296 2.296 0 0 1-2.293-2.293V12.615a2.296 2.296 0 0 1 2.293-2.297ZM25 12.254a9.85 9.85 0 1 0 9.848 9.85A9.86 9.86 0 0 0 25 12.254Zm1.385 1.096a8.86 8.86 0 0 1 7.474 8.754A8.87 8.87 0 0 1 25 30.963a8.862 8.862 0 1 1 1.385-17.613ZM25 15.184a6.92 6.92 0 1 0 6.92 6.92 6.93 6.93 0 0 0-6.92-6.92Zm.928 1.06a5.93 5.93 0 0 1 5.004 5.86A5.94 5.94 0 0 1 25 28.034a5.931 5.931 0 1 1 .928-11.79Z" style="stroke-width:.5;stroke:#000;stroke-opacity:1;stroke-dasharray:none"/>
</svg>
